svgs/sharp-thin/border-bottom.svg

<svg xmlns="http://www.w3.org/2000/svg" viewBox="0 0 448 512"><!--! Font Awesome Pro 6.6.0 by @fontawesome - https://fontawesome.com License - https://fontawesome.com/license (Commercial License) Copyright 2024 Fonticons, Inc. --><path d="M0 480l448 0 0-16L0 464l0 16zM16 368l32 0 0-32-32 0 0 32zm416 0l0-32-32 0 0 32 32 0zm-224 0l32 0 0-32-32 0 0 32zM48 176l0-32-32 0 0 32 32 0zm352 0l32 0 0-32-32 0 0 32zm-160 0l0-32-32 0 0 32 32 0zM16 272l32 0 0-32-32 0 0 32zm416 0l0-32-32 0 0 32 32 0zm-224 0l32 0 0-32-32 0 0 32zM48 80l0-32L16 48l0 32 32 0zm352 0l32 0 0-32-32 0 0 32zM240 80l0-32-32 0 0 32 32 0zM112 272l32 0 0-32-32 0 0 32zM144 80l0-32-32 0 0 32 32 0zm160 0l32 0 0-32-32 0 0 32zm32 192l0-32-32 0 0 32 32 0z"/></svg>

<svg xmlns="http://www.w3.org/2000/svg" viewBox="0 0 448 512"><!--! Font Awesome Pro 6.5.2 by @fontawesome - https://fontawesome.com License - https://fontawesome.com/license (Commercial License) Copyright 2024 Fonticons, Inc. --><path d="M0 480H448V464H0v16zM16 368H48V336H16v32zm416 0V336H400v32h32zm-224 0h32V336H208v32zM48 176V144H16v32H48zm352 0h32V144H400v32zm-160 0V144H208v32h32zM16 272H48V240H16v32zm416 0V240H400v32h32zm-224 0h32V240H208v32zM48 80V48H16V80H48zm352 0h32V48H400V80zM240 80V48H208V80h32zM112 272h32V240H112v32zM144 80V48H112V80h32zm160 0h32V48H304V80zm32 192V240H304v32h32z"/></svg>
